X: 1847
T: Russell's Waltz
B: australian traditional tunes wiki
M:3/4
L:1/8
R: Waltz
Q: 1/4=100
K:G
V:1 
%compare with http://abcnotation.com/tunePage?a=trillian.mit.edu/~jc/music/abc/Contra/waltz/Peeler_Creek_G/0000
|: dB | "G"G2 GA Bc | d2 dB G2 | "Am"AB AG EG | "D"AB AG EF |
"G"G2 GA Bc | d2 dB G2 | "Am"AB AG "D"EF | "G"G4:|
|: B2 | "Em"e3 f gf | e2 d2 B2 | e2 fg a2 | "Bm"b3 a gf |
"Em"e3 f gf | e2 d2 B2 | "Am"AB AG "D"EF | "G"G4:|
% abcbook-tune_id 6342d53afc2bebd3f9ab08f8


% abcbook-boost 0
% abcbook-tablature 
% abcbook-transpose 
% abcbook-lastupdated 1665324387587
% abcbook-soundfonts 
% abcbook-repeats 1


